src/lib/packages/icons/src/assets/filled/life-ring.svg

<svg width="24" height="24" viewBox="0 0 24 24" fill="none" xmlns="http://www.w3.org/2000/svg">
<path d="M8.38 9.42999C8.36 9.41999 8.35002 9.40001 8.33002 9.39001L4.42999 5.47998C2.90999 7.22998 2 9.51 2 12C2 14.49 2.90999 16.77 4.42999 18.52L8.33002 14.61C8.34002 14.59 8.36 14.58 8.38 14.57C7.87 13.85 7.56 12.95 7.56 12C7.56 11.05 7.87 10.15 8.38 9.42999ZM12 2C9.51 2 7.23999 2.90998 5.48999 4.41998L9.39001 8.33002C9.41001 8.35002 9.41999 8.37001 9.42999 8.39001C10.15 7.87001 11.04 7.56 12 7.56C12.96 7.56 13.85 7.87 14.58 8.38C14.59 8.36 14.6 8.35002 14.62 8.33002L18.52 4.41998C16.78 2.90998 14.5 2 12 2ZM19.58 5.47998L15.68 9.39001C15.66 9.40001 15.65 9.41999 15.63 9.42999C16.14 10.15 16.45 11.05 16.45 12C16.45 12.95 16.14 13.85 15.63 14.57C15.65 14.58 15.66 14.59 15.68 14.61L19.58 18.52C21.09 16.77 22 14.49 22 12C22 9.51 21.09 7.22998 19.58 5.47998ZM14.58 15.62C13.85 16.13 12.96 16.44 12 16.44C11.04 16.44 10.15 16.13 9.42999 15.61C9.41999 15.63 9.41001 15.65 9.39001 15.67L5.48999 19.58C7.23999 21.09 9.51 22 12 22C14.5 22 16.78 21.09 18.52 19.58L14.62 15.67C14.6 15.65 14.59 15.64 14.58 15.62Z" fill="currentColor"/>
</svg>

<svg xmlns="http://www.w3.org/2000/svg" width="24" height="24" fill="none"><path fill="currentColor" d="M8.38 9.43c-.02-.01-.03-.03-.05-.04l-3.9-3.91A9.903 9.903 0 0 0 2 12c0 2.49.91 4.77 2.43 6.52l3.9-3.91c.01-.02.03-.03.05-.04-.51-.72-.82-1.62-.82-2.57 0-.95.31-1.85.82-2.57ZM12 2c-2.49 0-4.76.91-6.51 2.42l3.9 3.91c.02.02.03.04.04.06.72-.52 1.61-.83 2.57-.83.96 0 1.85.31 2.58.82.01-.02.02-.03.04-.05l3.9-3.91A9.907 9.907 0 0 0 12 2Zm7.58 3.48-3.9 3.91c-.02.01-.03.03-.05.04.51.72.82 1.62.82 2.57 0 .95-.31 1.85-.82 2.57.02.01.03.02.05.04l3.9 3.91A9.947 9.947 0 0 0 22 12c0-2.49-.91-4.77-2.42-6.52Zm-5 10.14c-.73.51-1.62.82-2.58.82s-1.85-.31-2.57-.83a.21.21 0 0 1-.04.06l-3.9 3.91A9.92 9.92 0 0 0 12 22c2.5 0 4.78-.91 6.52-2.42l-3.9-3.91c-.02-.02-.03-.03-.04-.05Z"/></svg>
